assets/illustrations/menu.svg

<svg width="45" height="46" viewBox="0 0 45 46" fill="none" xmlns="http://www.w3.org/2000/svg">
<g id="menu">
<mask id="mask0_50_1232" style="mask-type:alpha" maskUnits="userSpaceOnUse" x="0" y="0" width="45" height="46">
<rect id="Bounding box" y="0.5" width="45" height="45" fill="#D9D9D9"/>
</mask>
<g mask="url(#mask0_50_1232)">
<path id="menu_2" d="M2.5 38.5C1.79167 38.5 1.19792 38.2604 0.71875 37.7813C0.239583 37.3021 0 36.7083 0 36C0 35.2917 0.239583 34.6979 0.71875 34.2188C1.19792 33.7396 1.79167 33.5 2.5 33.5H42.5C43.2083 33.5 43.8021 33.7396 44.2812 34.2188C44.7604 34.6979 45 35.2917 45 36C45 36.7083 44.7604 37.3021 44.2812 37.7813C43.8021 38.2604 43.2083 38.5 42.5 38.5H2.5ZM2.5 26C1.79167 26 1.19792 25.7604 0.71875 25.2812C0.239583 24.8021 0 24.2083 0 23.5C0 22.7917 0.239583 22.1979 0.71875 21.7188C1.19792 21.2396 1.79167 21 2.5 21H42.5C43.2083 21 43.8021 21.2396 44.2812 21.7188C44.7604 22.1979 45 22.7917 45 23.5C45 24.2083 44.7604 24.8021 44.2812 25.2812C43.8021 25.7604 43.2083 26 42.5 26H2.5ZM2.5 13.5C1.79167 13.5 1.19792 13.2604 0.71875 12.7812C0.239583 12.3021 0 11.7083 0 11C0 10.2917 0.239583 9.69792 0.71875 9.21875C1.19792 8.73958 1.79167 8.5 2.5 8.5H42.5C43.2083 8.5 43.8021 8.73958 44.2812 9.21875C44.7604 9.69792 45 10.2917 45 11C45 11.7083 44.7604 12.3021 44.2812 12.7812C43.8021 13.2604 43.2083 13.5 42.5 13.5H2.5Z" fill="#F2EFDE"/>
</g>
</g>
</svg>

<svg width="45" height="46" fill="none" xmlns="http://www.w3.org/2000/svg"><mask id="a" style="mask-type:alpha" maskUnits="userSpaceOnUse" x="0" y="0" width="45" height="46"><path fill="#D9D9D9" d="M0 .5h45v45H0z"/></mask><g mask="url(#a)"><path d="M2.5 38.5c-.708 0-1.302-.24-1.781-.719C.239 37.302 0 36.708 0 36s.24-1.302.719-1.781c.479-.48 1.073-.719 1.781-.719h40c.708 0 1.302.24 1.781.719.48.479.719 1.073.719 1.781s-.24 1.302-.719 1.781c-.479.48-1.073.719-1.781.719h-40Zm0-12.5c-.708 0-1.302-.24-1.781-.719C.239 24.802 0 24.208 0 23.5s.24-1.302.719-1.781C1.198 21.239 1.792 21 2.5 21h40c.708 0 1.302.24 1.781.719.48.479.719 1.073.719 1.781s-.24 1.302-.719 1.781c-.479.48-1.073.719-1.781.719h-40Zm0-12.5c-.708 0-1.302-.24-1.781-.719C.239 12.302 0 11.708 0 11s.24-1.302.719-1.781C1.198 8.739 1.792 8.5 2.5 8.5h40c.708 0 1.302.24 1.781.719.48.479.719 1.073.719 1.781s-.24 1.302-.719 1.781c-.479.48-1.073.719-1.781.719h-40Z" fill="#F2EFDE"/></g></svg>
